X:120
%%pagewidth 10.5in
%%vocalfont Baskerville10Pro 14
T:The Trimmer
M:6/8
L:1/8
K:G
%%score 1 2
V:1 clef-treble
V:2 clef-bass octave=-1
V:1
[A,DF]|[B,DG]2G G>AB&x3Dx2|A>FD D>E[CF]&[DF]x2x3|[B,G]2E E>FG&x3B,x2|
w:Pray lend~me your ear, if you've a-ny to spare, You that love Common-wealth as you
V:2
D|G,3B,3|D3-D2D|E3G,3|
V:1
F>DB, B,2[A,=DF]&[B,^D]x2x3|[B,DG]2G G>AB&x3Dx2|A>FD (D>E)[CF]&[B,D]x2x3|A>FD [A,^DF]2D&[B,E]x2x3|[G,E]3-[G,E]2||
w:hate Com-mon Prayer, That can~in a breath pray, dis-*semble and swear,* Which no-*body can de-ny.*
V:2
B,3-B,2D|G,3B,3|D3-D2A,|B,3B,3|D3E,2||
V:1
([EGB]/c/)|[DBd]2d d>cB&x3[DG]x2|A>FD D2[Fd]&[DF]x2x3|[Ge]2e g>fe&x3^Ax2|[B^d]BB B2[EGB]/c/|
w:I'm*first on~the wrong side and then on the right, To\-day I'm a Jack, and to-morrow a Mite, I for*
V:2
E|G,3B,3|D3-D2D|C3C3|B,3-B,2E|
V:1
=d>ed d>cB&[=DB]x2[DG]x2|A>FD (D>E)[CF]&[DF]x2x3|G>FE [A,^DF]2F|[G,E]3-[G,E]2||
w:ei-ther will pray, but for nei-ther will fight,* Which no-*body can de-ny.*
V:2
G,3B,3|D3-D2A,|B,3B,3|E3E,2||

